X: 101
T: Missa O salutaris hostia / Sanctus
N: Derived from Rue1022d-Missa_O_salutaris_hostia-Sanctus.krn
C: Pierre de la Rue
%%abc-version 2.0
%%abcx-abcm2ps-target-version 5.9.1 (29 Sep 2008)
%%abc-creator hum2abc beta
%%abcx-conversion-date 2019/02/17 08:01:14
%%abc-edited-by Jesse Rodin
%%abc-edited-by Chris Gage 04-15-2013
%%abcx-initial-encoding-date 2013/07/28/
%%humdrum-veritas 177149084
%%humdrum-veritas-data 392857046
%%linebreak <none>
%%barnumbers 0
L: 1/4
M: 3/1
Q: 1/2=120
%%staves [1 2 3 4]
V: 1 clef=treble
V: 2 clef=treble-8
V: 3 clef=treble-8
V: 4 clef=bass
K: F
[V:1] G8G4 | 
[V:2] z12 | 
[V:3] z12 | 
[V:4] z12 | 
[V:1] C4G4G2A2- | 
[V:2] c8c4 | 
[V:3] z12 | 
[V:4] z12 | 
[V:1] A2GFE4z4 | 
[V:2] F4c4c2d2- | 
[V:3] z12 | 
[V:4] z12 | 
[V:1] A4c4B4 | 
[V:2] d2cBA4z4 | 
[V:3] z12 | 
[V:4] z12 | 
[V:1] A2d2A2d3^cc2 | 
[V:2] d4f4e4 | 
[V:3] z12 | 
[V:4] z12 | 
[V:1] d2B4AGA4 | 
[V:2] d2g2d2g3^f^f2 | 
[V:3] z12 | 
[V:4] z12 | 
[V:1] G8z4 | 
[V:2] g2e4dcd4 | 
[V:3] G8G4 | 
[V:4] z12 | 
[V:1] z12 | 
[V:2] c8z4 | 
[V:3] C4G4G2A2- | 
[V:4] C,8C,4 | 
[V:1] z12 | 
[V:2] z12 | 
[V:3] A2GFE4z4 | 
[V:4] F,,4C,4C,2D,2- | 
[V:1] z12 | 
[V:2] z12 | 
[V:3] A4c4B4 | 
[V:4] D,2C,B,,A,,4z4 | 
[V:1] z12 | 
[V:2] z12 | 
[V:3] A2d2A2d3^c^c2 | 
[V:4] D,4F,4E,4 | 
[V:1] z12 | 
[V:2] z12 | 
[V:3] d2B4AGA4 | 
[V:4] D,2G,2D,2G,3^F,F,2 | 
[V:1] G6G2F4 | 
[V:2] z12 | 
[V:3] G8z4 | 
[V:4] G,2E,4D,C,D,4 | 
[V:1] E2G4FED4 | 
[V:2] c6c2B4 | 
[V:3] z12 | 
[V:4] C,8z4 | 
[V:1] C4G6G2 | 
[V:2] A2c4BAG4 | 
[V:3] z12 | 
[V:4] z12 | 
[V:1] A2c4BAG4 | 
[V:2] F4c6c2 | 
[V:3] z12 | 
[V:4] z12 | 
[V:1] z2A4F2G2E2 | 
[V:2] d2f4edc4 | 
[V:3] z12 | 
[V:4] z12 | 
[V:1] F2D2F4E4 | 
[V:2] z2d4B2c2A2 | 
[V:3] z12 | 
[V:4] z12 | 
[V:1] D8z4 | 
[V:2] B2G2B4A4 | 
[V:3] G6G2F4 | 
[V:4] z12 | 
[V:1] z12 | 
[V:2] G8z4 | 
[V:3] E2G4FED4 | 
[V:4] C,6C,2B,,4 | 
[V:1] z2G4A2B4 | 
[V:2] z12 | 
[V:3] C4G6G2 | 
[V:4] A,,2C,4B,,A,,G,,4 | 
[V:1] A4G8 | 
[V:2] z2c4d2e4 | 
[V:3] A2c4BAG4 | 
[V:4] F,,4C,6C,2 | 
[V:1] F4A3GE2G2 | 
[V:2] d4c8 | 
[V:3] z2A4F2G2E2 | 
[V:4] D,2F,4E,D,C,4 | 
[V:1] D2F3ED2E2C2 | 
[V:2] B4d3cA2c2 | 
[V:3] F2D2F4E4 | 
[V:4] z2D,4B,,2C,2A,,2 | 
[V:1] D8A4 | 
[V:2] G2B3AG2A2F2 | 
[V:3] D8z4 | 
[V:4] B,,2G,,2B,,4A,,4 | 
[V:1] D2d3cBGA4 | 
[V:2] G8d4 | 
[V:3] z12 | 
[V:4] G,,8z4 | 
[V:1] G2B4A2F2G2 | 
[V:2] G2g3fecd4 | 
[V:3] z2G4A2B4 | 
[V:4] z12 | 
[V:1] A2GFE2F2G4 | 
[V:2] c2e4d2B2c2 | 
[V:3] A4G8 | 
[V:4] z2C,4D,2_E,4 | 
[V:1] z2A3GE4E2 | 
[V:2] d2cBA2B2c4 | 
[V:3] F4A3GE2G2 | 
[V:4] D,4C,8 | 
[V:1] F2D2F3EC2E2 | 
[V:2] z2d3cA4A2 | 
[V:3] D2F3ED2E2C2 | 
[V:4] B,,4D,3C,A,,2C,2 | 
[V:1] D2d3cB2ABcA | 
[V:2] B2G2B3AF2A2 | 
[V:3] D8A4 | 
[V:4] G,,2B,,3A,,G,,2A,,2F,,2 | 
[V:1] BGB3AG3^F/E/F2 | 
[V:2] G2g3fe2d4- | 
[V:3] D2d3cBGA4 | 
[V:4] G,,8D,4 | 
[V:1] G12 ||  
[V:2] d12 ||  
[V:3] G12 ||  
[V:4] G,,12 ||  
[V:1]  [K:F] [K:clef=treble][M:2/1]z8 | 
[V:2]  [K:F] [K:clef=treble-8][M:2/1]z8 | 
[V:3]  [K:F] [K:clef=treble-8][M:2/1]G8 | 
[V:4]  [K:F] [K:clef=bass][M:2/1]z8 | 
[V:1] z8 | 
[V:2] z8 | 
[V:3] A4G2A2- | 
[V:4] z4C,4- | 
[V:1] z8 | 
[V:2] z8 | 
[V:3] ABcAB4 | 
[V:4] C,4D,4 | 
[V:1] z8 | 
[V:2] z8 | 
[V:3] A3G/A/B2d2- | 
[V:4] C,2D,3E,F,D, | 
[V:1] z8 | 
[V:2] z8 | 
[V:3] d2^c2d4 | 
[V:4] E,4D,3C,/D,/ | 
[V:1] z8 | 
[V:2] z8 | 
[V:3] z2d2c2A2 | 
[V:4] E,2G,4^F,2 | 
[V:1] z8 | 
[V:2] z8 | 
[V:3] B4z2B2 | 
[V:4] G,4z2G,2 | 
[V:1] z8 | 
[V:2] z8 | 
[V:3] A2F2G4 | 
[V:4] F,2D,2_E,4 | 
[V:1] z8 | 
[V:2] z8 | 
[V:3] z2G2F2D2 | 
[V:4] z2_E,2D,2B,,2 | 
[V:1] z8 | 
[V:2] z8 | 
[V:3] _E4D2G2- | 
[V:4] C,4z2C,2 | 
[V:1] z8 | 
[V:2] z8 | 
[V:3] G2G3^F^F2 | 
[V:4] B,,2G,,2A,,4 | 
[V:1] z8 | 
[V:2] z8 | 
[V:3] G4A4 | 
[V:4] G,,2C,4C,2- | 
[V:1] z8 | 
[V:2] z8 | 
[V:3] G2B2AGc2- | 
[V:4] C,B,,B,,2C,4 | 
[V:1] z8 | 
[V:2] z8 | 
[V:3] c2=B2c4 | 
[V:4] D,4C,2E,2 | 
[V:1] z8 | 
[V:2] z8 | 
[V:3] z4c4 | 
[V:4] D,C,F,4E,2 | 
[V:1] z8 | 
[V:2] z8 | 
[V:3] c4A4 | 
[V:4] F,4z4 | 
[V:1] z8 | 
[V:2] z8 | 
[V:3] A2c4BA | 
[V:4] F,4F,4 | 
[V:1] z8 | 
[V:2] z8 | 
[V:3] B2A2F2A2- | 
[V:4] D,4D,2F,2- | 
[V:1] z8 | 
[V:2] z8 | 
[V:3] A2GFG2F2 | 
[V:4] F,2_E,D,E,2D,2 | 
[V:1] z8 | 
[V:2] z8 | 
[V:3] D2F4ED | 
[V:4] B,,2D,4C,B,, | 
[V:1] z8 | 
[V:2] z8 | 
[V:3] E2F2G2d2- | 
[V:4] C,2B,,2G,,2B,,2- | 
[V:1] z8 | 
[V:2] z8 | 
[V:3] d2cBc2d2 | 
[V:4] B,,2A,,G,,A,,2B,,2 | 
[V:1] z8 | 
[V:2] z8 | 
[V:3] G4B4 | 
[V:4] C,2G,4F,E, | 
[V:1] z8 | 
[V:2] z8 | 
[V:3] A2G4c2- | 
[V:4] F,2G,2C,4 | 
[V:1] z8 | 
[V:2] z8 | 
[V:3] cBAGFGAB | 
[V:4] E,4D,2C,2- | 
[V:1] z8 | 
[V:2] z8 | 
[V:3] A2D2z2A2 | 
[V:4] C,2F,3E,D,C, | 
[V:1] z8 | 
[V:2] z8 | 
[V:3] B2AGF2B2- | 
[V:4] B,,C,D,_E,D,2G,,2 | 
[V:1] z8 | 
[V:2] z8 | 
[V:3] BAGFG3F | 
[V:4] z2D,2_E,2D,C, | 
[V:1] z8 | 
[V:2] z8 | 
[V:3] D2G3F_ED | 
[V:4] B,,2_E,3D,C,B,, | 
[V:1] z8 | 
[V:2] z8 | 
[V:3] _E4D2A2- | 
[V:4] C,3B,,G,,2C,2- | 
[V:1] z8 | 
[V:2] z8 | 
[V:3] A2G3^F^F2 | 
[V:4] C,B,,A,,G,,A,,4 | 
[V:1] z8 ||  
[V:2] z8 ||  
[V:3] G8 ||  
[V:4] G,,8 ||  
[V:1]  [K:F] [K:clef=treble][M:2/1]G8 | 
[V:2]  [K:F] [K:clef=treble-8][M:2/1]z8 | 
[V:3]  [K:F] [K:clef=treble-8][M:2/1]z8 | 
[V:4]  [K:F] [K:clef=bass][M:2/1]z8 | 
[V:1] G8 | 
[V:2] z8 | 
[V:3] z8 | 
[V:4] z8 | 
[V:1] E8- | 
[V:2] c8 | 
[V:3] z8 | 
[V:4] z8 | 
[V:1] E4E4 | 
[V:2] c8 | 
[V:3] z8 | 
[V:4] z8 | 
[V:1] F6G2 | 
[V:2] A8- | 
[V:3] z8 | 
[V:4] z8 | 
[V:1] A8 | 
[V:2] A4A4 | 
[V:3] z8 | 
[V:4] z8 | 
[V:1] D8 | 
[V:2] B6c2 | 
[V:3] G8 | 
[V:4] z8 | 
[V:1] z4D4 | 
[V:2] d8 | 
[V:3] G8 | 
[V:4] z8 | 
[V:1] E4G4- | 
[V:2] G8 | 
[V:3] E8- | 
[V:4] C,8 | 
[V:1] G2F2E2D2 | 
[V:2] z4G4 | 
[V:3] E4E4 | 
[V:4] C,8 | 
[V:1] C8- | 
[V:2] A4c4- | 
[V:3] F6G2 | 
[V:4] A,,8- | 
[V:1] C4C4 | 
[V:2] c2B2A2G2 | 
[V:3] A8 | 
[V:4] A,,4A,,4 | 
[V:1] D4F4- | 
[V:2] F8- | 
[V:3] D8 | 
[V:4] B,,6C,2 | 
[V:1] F4F4 | 
[V:2] F4F4 | 
[V:3] z4D4 | 
[V:4] D,8 | 
[V:1] E4D4 | 
[V:2] G4B4- | 
[V:3] E4G4- | 
[V:4] G,,8 | 
[V:1] G8 | 
[V:2] B4B4 | 
[V:3] G2F2E2D2 | 
[V:4] z4G,,4 | 
[V:1] E8- | 
[V:2] A4G4 | 
[V:3] C8- | 
[V:4] A,,4C,4- | 
[V:1] E8 | 
[V:2] c8 | 
[V:3] C4C4 | 
[V:4] C,2B,,2A,,2G,,2 | 
[V:1] z4A4- | 
[V:2] A8- | 
[V:3] D4F4- | 
[V:4] F,,8- | 
[V:1] A4A4 | 
[V:2] A8 | 
[V:3] F4F4 | 
[V:4] F,,4F,,4 | 
[V:1] G4F4 | 
[V:2] z4d4- | 
[V:3] E4D4 | 
[V:4] G,,4B,,4- | 
[V:1] D8 | 
[V:2] d4d4 | 
[V:3] G8 | 
[V:4] B,,4B,,4 | 
[V:1] E4G4- | 
[V:2] c4B4 | 
[V:3] E8- | 
[V:4] A,,4G,,4 | 
[V:1] G8 | 
[V:2] G8 | 
[V:3] E8 | 
[V:4] C,8 | 
[V:1] F4E4 | 
[V:2] A4c4- | 
[V:3] z4A4- | 
[V:4] A,,8- | 
[V:1] c6B2 | 
[V:2] c8 | 
[V:3] A4A4 | 
[V:4] A,,8 | 
[V:1] G4A4- | 
[V:2] B4A4 | 
[V:3] G4F4 | 
[V:4] z4D,4- | 
[V:1] A2G2F4 | 
[V:2] f6e2 | 
[V:3] D8 | 
[V:4] D,4D,4 | 
[V:1] E4D4- | 
[V:2] c4d4- | 
[V:3] E4G4- | 
[V:4] C,4B,,4 | 
[V:1] D4G4 | 
[V:2] d2c2B4 | 
[V:3] G8 | 
[V:4] G,,8 | 
[V:1] z4G4 | 
[V:2] A4G4- | 
[V:3] F4E4 | 
[V:4] A,,4C,4- | 
[V:1] G4A4 | 
[V:2] G4c4 | 
[V:3] c6B2 | 
[V:4] C,8 | 
[V:1] D4A2c2- | 
[V:2] z4c4 | 
[V:3] G4A4- | 
[V:4] B,,4A,,4 | 
[V:1] c2B2A4 | 
[V:2] c4d4 | 
[V:3] A2G2F4 | 
[V:4] F,6E,2 | 
[V:1] G4F2D2 | 
[V:2] G4d2f2- | 
[V:3] E4D4- | 
[V:4] C,4D,4- | 
[V:1] A4G4 | 
[V:2] f2e2d4 | 
[V:3] D4G4 | 
[V:4] D,2C,2B,,4 | 
[V:1] A4B4- | 
[V:2] c4B2G2 | 
[V:3] z4G4 | 
[V:4] A,,4G,,4- | 
[V:1] B4A2G2 | 
[V:2] d4c4 | 
[V:3] G4A4 | 
[V:4] G,,4C,4 | 
[V:1] F3GABA2 | 
[V:2] d4_e4- | 
[V:3] D4A2c2- | 
[V:4] z4C,4 | 
[V:1] A2G2^FEF2 | 
[V:2] e4d4- | 
[V:3] c2B2A4 | 
[V:4] C,4D,4 | 
[V:1] G8 ||  
[V:2] d8 ||  
[V:3] G8 ||  
[V:4] G,,8 ||  
[V:1]  [K:F] [K:clef=treble][M:2/1]G4E2F2 | 
[V:2]  [K:F] [K:clef=treble-8][M:2/1]z8 | 
[V:3]  [K:F] [K:clef=treble-8][M:2/1]z8 | 
[V:4]  [K:F] [K:clef=bass][M:2/1]z8 | 
[V:1] G2A3GG2 | 
[V:2] c4A2B2 | 
[V:3] z8 | 
[V:4] z8 | 
[V:1] A2F2E4 | 
[V:2] c2d3cc2 | 
[V:3] z8 | 
[V:4] z8 | 
[V:1] D4z2A2 | 
[V:2] d2B2A4 | 
[V:3] z8 | 
[V:4] z8 | 
[V:1] B2B3GAB | 
[V:2] G4z2d2 | 
[V:3] z8 | 
[V:4] z8 | 
[V:1] c2c3ABc | 
[V:2] e2e3cde | 
[V:3] z8 | 
[V:4] z8 | 
[V:1] d2cBA4 | 
[V:2] f2f3def | 
[V:3] z8 | 
[V:4] z8 | 
[V:1] G4z2F2 | 
[V:2] g2fed4 | 
[V:3] z8 | 
[V:4] z8 | 
[V:1] G2A2B3G | 
[V:2] c4z2B2 | 
[V:3] z8 | 
[V:4] z8 | 
[V:1] A4G2c2- | 
[V:2] c2d2_e3c | 
[V:3] z8 | 
[V:4] z8 | 
[V:1] cBB2c2A2- | 
[V:2] d4c2f2- | 
[V:3] z8 | 
[V:4] z8 | 
[V:1] AGG2A2F2- | 
[V:2] fee2f2d2- | 
[V:3] z8 | 
[V:4] z8 | 
[V:1] FEE2FDd2- | 
[V:2] dcc2d2B2- | 
[V:3] z8 | 
[V:4] z8 | 
[V:1] dcc2d2cB | 
[V:2] BAA2BGg2- | 
[V:3] z8 | 
[V:4] z8 | 
[V:1] AGA2G3A | 
[V:2] gff2g2fe | 
[V:3] z8 | 
[V:4] z8 | 
[V:1] B2A4G2- | 
[V:2] dcd2c3d | 
[V:3] z8 | 
[V:4] z8 | 
[V:1] G2FEDEFG | 
[V:2] e2d4c2- | 
[V:3] z8 | 
[V:4] z8 | 
[V:1] ABc2B2A2- | 
[V:2] c2BAGABc | 
[V:3] z8 | 
[V:4] z8 | 
[V:1] A2GFG2A2 | 
[V:2] def2e2d2- | 
[V:3] z8 | 
[V:4] z8 | 
[V:1] F2EDE3F | 
[V:2] d2cBc2d2 | 
[V:3] z8 | 
[V:4] z8 | 
[V:1] D2G3^FF2 | 
[V:2] B2AGA3B | 
[V:3] z8 | 
[V:4] z8 | 
[V:1] G8 ||  
[V:2] G8 ||  
[V:3] z8 ||  
[V:4] z8 ||  



